X: 392
T:Shanks Mare
D:Mike and Mary Rafferty, the Old Fireside Music.
Z:Lesl
M:C|
L:1/8
K:Edor
E2BB {c}BABz|e~e2B dBAF|E2BB {c}BABz|eefe dBAF|
E2BB {c}BABz|e~e2B dBAF|E2BB {c}BABz|eafe dBAz||
Beed efde|fede feez|fbba faaf|eafe dBAz|
Beed ezde|fede feez|fbba faaf|ezfe dBAF|E8||
<end>
<start>
